X: 42218
T: Way To Judique, The
R: jig
M: 6/8
K: Gmajor
efe c2 d|efe c2 e|dcd B2 c|d3 dcd|
efe ce=g|fef dfa|g2 b gfg|a3 a:|
agf edc|Bcd f2 e|cde a2 e|cde f2 g|
agf edc|Bcd f2 a|efe dcB|A3 A:|
ded B2 c|ded B2 d|cBc A2 B|c3 cBc|
ded Bd=f|ede ceg|f2 a def|g3:|
gfe dcB|ABc e2 d|Bcd g2 d|ABc e2 f|
gfe dcB|AA/B/c efg|ded cBA|1 G3:|

